flaticon/productivity-and-development/save.svg

<svg xmlns="http://www.w3.org/2000/svg" width="32" height="32" viewBox="0 0 24 24">
    <path d="M 17.558594 0 L 0 0 L 0 24 L 24 24 L 24 6.699219 Z M 5.023438 1.019531 L 15.285156 1.019531 L 15.285156 7.847656 L 5.023438 7.847656 Z M 22.980469 22.980469 L 1.019531 22.980469 L 1.019531 1.019531 L 4.003906 1.019531 L 4.003906 8.871094 L 16.304688 8.871094 L 16.304688 1.019531 L 17.125 1.019531 L 22.980469 7.113281 Z M 22.980469 22.980469"/>
    <path d="M 4.003906 20.40625 L 19.996094 20.40625 L 19.996094 11.457031 L 4.003906 11.457031 Z M 5.023438 12.476562 L 18.976562 12.476562 L 18.976562 19.386719 L 5.023438 19.386719 Z M 5.023438 12.476562"/>
</svg>

<svg xmlns="http://www.w3.org/2000/svg" width="32" height="32" viewBox="0 0 24 24">
    <path d="M17.559 0H0v24h24V6.7zM5.023 1.02h10.262v6.828H5.023zM22.98 22.98H1.02V1.02h2.984V8.87h12.3V1.02h.821l5.855 6.093zm0 0"/>
    <path d="M4.004 20.406h15.992v-8.949H4.004zm1.02-7.93h13.953v6.91H5.023zm0 0"/>
</svg>
